X: 11
T:Old Favourite, The
T:Miko Doyle's Slide
M:12/8
L:1/8
R:Slide
K:G
A[|:B3 BAB dBA G2B|ded d2B ded B2A|!
B2B BAB dBA G2B|ded B2A G3 G2A||!
B3 BAB dBA G2B|ded d2B ded B2A|!
B2B BAB dBA G2B|ded cBA G3 GBd|]!
g3 f3 efe d2B|ded d2B ded B2d|!
g3 f3 efe d2B|ded B2A G3 GBd||!
g3 f3 efe d2B|ded d2B ded B2d|!
gbg faf efe d2B|dge dge dge dBA|]!
